Obsidian/actions/24s/format-segment-line.svg

<svg height="24" viewBox="0 0 24 24" width="24" xmlns="http://www.w3.org/2000/svg"><path d="m12 1v1 1 .3125l-8.6875 8.6875h-.3125-1-1v3h3v-2.3125l8.6875-8.6875h2.3125v-3z" fill="#bebebe" transform="translate(4 4)"/></svg>

<svg xmlns="http://www.w3.org/2000/svg" width="24" height="24" viewBox="0 0 24 24">
 <defs>
  <style id="current-color-scheme" type="text/css">
   .ColorScheme-Text { color:#bebebe; } .ColorScheme-Highlight { color:#4285f4; }
  </style>
 </defs>
 <path style="fill:currentColor" class="ColorScheme-Text" d="M 12 1 L 12 2 L 12 3 L 12 3.3125 L 3.3125 12 L 3 12 L 2 12 L 1 12 L 1 15 L 4 15 L 4 12.6875 L 12.6875 4 L 15 4 L 15 1 L 12 1 z" transform="translate(4 4)"/>
</svg>
